src/icons/outline/symbols/location.svg

<svg width="24" height="24" viewBox="0 0 24 24" fill="none" xmlns="http://www.w3.org/2000/svg">
<g clip-path="url(#clip0_5080_973)">
<path fill-rule="evenodd" clip-rule="evenodd" d="M3 10.2018C3 5.13284 7.01658 1 12 1C16.9834 1 21 5.13284 21 10.2018C21 13.2133 19.5535 16.0788 17.8636 18.2954C16.179 20.505 14.1504 22.2024 12.8028 22.836C12.5482 22.9557 12.2587 22.9983 12.0126 23C11.7656 23.0016 11.4668 22.9628 11.1972 22.836C9.49706 22.0366 7.46409 20.3452 5.85582 18.1563C4.24371 15.9622 3 13.1882 3 10.2018ZM12 2.55204C7.89439 2.55204 4.54286 5.96392 4.54286 10.2018C4.54286 12.758 5.61343 15.2152 7.09657 17.2338C8.58297 19.2569 10.4253 20.7594 11.8488 21.4292C11.8488 21.4291 11.8611 21.434 11.8881 21.4389C11.9193 21.4446 11.9588 21.4482 12.0023 21.4479C12.0458 21.4477 12.0853 21.4435 12.1163 21.4376C12.1393 21.4331 12.1509 21.4291 12.1527 21.4285C13.2032 20.9333 15.0486 19.4373 16.6393 17.3509C18.2262 15.2694 19.4571 12.7329 19.4571 10.2018C19.4571 5.96392 16.1056 2.55204 12 2.55204ZM12 7.7255C10.7219 7.7255 9.68571 8.7678 9.68571 10.0536C9.68571 11.3393 10.7219 12.3816 12 12.3816C13.2781 12.3816 14.3143 11.3393 14.3143 10.0536C14.3143 8.7678 13.2781 7.7255 12 7.7255ZM8.14286 10.0536C8.14286 7.91064 9.86976 6.17346 12 6.17346C14.1302 6.17346 15.8571 7.91064 15.8571 10.0536C15.8571 12.1965 14.1302 13.9336 12 13.9336C9.86976 13.9336 8.14286 12.1965 8.14286 10.0536Z" fill="#3C3B44"/>
</g>
<defs>
<clipPath id="clip0_5080_973">
<rect width="24" height="24" fill="white"/>
</clipPath>
</defs>
</svg>

<svg xmlns="http://www.w3.org/2000/svg" width="24" height="24" fill="none" viewBox="0 0 24 24"><g clip-path="url(#a)"><path fill="currentColor" fill-rule="evenodd" d="M3 10.202C3 5.132 7.017 1 12 1s9 4.133 9 9.202c0 3.011-1.447 5.877-3.136 8.093-1.685 2.21-3.714 3.907-5.061 4.541-.255.12-.544.162-.79.164a1.9 1.9 0 0 1-.816-.164c-1.7-.8-3.733-2.49-5.341-4.68C4.244 15.962 3 13.188 3 10.202m9-7.65c-4.106 0-7.457 3.412-7.457 7.65 0 2.556 1.07 5.013 2.554 7.032 1.486 2.023 3.328 3.525 4.752 4.195q-.001.001.04.01a.6.6 0 0 0 .227-.001q.034-.008.037-.01c1.05-.495 2.896-1.99 4.486-4.077 1.587-2.082 2.818-4.618 2.818-7.15 0-4.237-3.351-7.649-7.457-7.649m0 5.174a2.32 2.32 0 0 0-2.314 2.328A2.32 2.32 0 0 0 12 12.382a2.32 2.32 0 0 0 2.314-2.328A2.32 2.32 0 0 0 12 7.726m-3.857 2.328c0-2.143 1.727-3.88 3.857-3.88s3.857 1.737 3.857 3.88-1.727 3.88-3.857 3.88-3.857-1.737-3.857-3.88" clip-rule="evenodd"/></g><defs><clipPath id="a"><path fill="currentColor" d="M0 0h24v24H0z"/></clipPath></defs></svg>
